local/share/icons/dracula-icons-main/scalable/mimetypes/text-x-tcl.svg

<?xml version="1.0" encoding="UTF-8"?>
<svg xmlns="http://www.w3.org/2000/svg" xmlns:xlink="http://www.w3.org/1999/xlink" width="64" height="64" viewBox="0 0 64 64">
<defs>
<filter id="filter-remove-color" x="0%" y="0%" width="100%" height="100%">
<feColorMatrix color-interpolation-filters="sRGB" values="0 0 0 0 1 0 0 0 0 1 0 0 0 0 1 0 0 0 1 0" />
</filter>
<mask id="mask-0">
<g filter="url(#filter-remove-color)">
<rect x="-6.4" y="-6.4" width="76.8" height="76.8" fill="rgb(0%, 0%, 0%)" fill-opacity="0.1"/>
</g>
</mask>
<linearGradient id="linear-pattern-0" gradientUnits="userSpaceOnUse" x1="49.570999" y1="52.714001" x2="51.714001" y2="54.856998" gradientTransform="matrix(2.3333, 0, 0, 2.3333, -68.667, -72.000999)">
<stop offset="0" stop-color="rgb(0%, 0%, 0%)" stop-opacity="1"/>
<stop offset="1" stop-color="rgb(0%, 0%, 0%)" stop-opacity="0"/>
</linearGradient>
<clipPath id="clip-0">
<rect x="0" y="0" width="64" height="64"/>
</clipPath>
<g id="source-4135" clip-path="url(#clip-0)">
<path fill-rule="evenodd" fill="url(#linear-pattern-0)" d="M 56 46 L 42 60 L 51 60 C 53.769531 60 56 57.769531 56 55 Z M 56 46 "/>
</g>
</defs>
<path fill-rule="nonzero" fill="rgb(95.686275%, 95.686275%, 95.686275%)" fill-opacity="1" d="M 13 4 L 51 4 C 53.761719 4 56 6.238281 56 9 L 56 55 C 56 57.761719 53.761719 60 51 60 L 13 60 C 10.238281 60 8 57.761719 8 55 L 8 9 C 8 6.238281 10.238281 4 13 4 Z M 13 4 "/>
<g mask="url(#mask-0)">
<use xlink:href="#source-4135"/>
</g>
<path fill-rule="nonzero" fill="rgb(95.294118%, 49.803922%, 32.54902%)" fill-opacity="1" d="M 18.171875 19.457031 L 17.53125 21.386719 L 24.046875 24 L 17.53125 26.613281 L 18.171875 28.542969 L 26.554688 24.996094 L 26.554688 23.003906 Z M 26.542969 31.195312 L 26.542969 33.164062 L 36.515625 33.164062 L 36.515625 31.195312 Z M 26.542969 31.195312 "/>
</svg>

<svg width="64" height="64" version="1.1" viewBox="0 0 64 64" xmlns="http://www.w3.org/2000/svg">
 <defs>
  <linearGradient id="a" x1="49.571" x2="51.714" y1="52.714" y2="54.857" gradientTransform="matrix(2.3333,0,0,2.3333,-68.667,-72.001)" gradientUnits="userSpaceOnUse">
   <stop offset="0"/>
   <stop stop-opacity="0" offset="1"/>
  </linearGradient>
 </defs>
 <g transform="scale(1)">
  <rect x="8" y="4" width="48" height="56" ry="5" fill="#f4f4f4" style="paint-order:stroke fill markers"/>
  <path d="m56 46-14 14h9c2.77 0 5-2.23 5-5z" fill="url(#a)" fill-rule="evenodd" opacity=".1" stroke-width="8.8191" style="paint-order:stroke fill markers"/>
 </g>
 <path d="m18.173 19.456-0.64178 1.9307 6.5149 2.6133-6.5149 2.6133 0.64178 1.9307 8.382-3.5494v-1.9892zm8.3703 11.74v1.9697h9.974v-1.9697z" enable-background="new" fill="#f37f53" stroke-width="3.7796"/>
</svg>
